svgs/disk_usage.svg

<svg width="192" height="192" viewBox="0 0 192 192" fill="none" xmlns="http://www.w3.org/2000/svg">
<path d="M151 60L110 83H151V60Z" stroke="black" stroke-width="12" stroke-linejoin="round"/>
<path d="M160.857 145L122 101H170V145H160.857Z" stroke="black" stroke-width="12" stroke-linejoin="round"/>
<path d="M126.621 130.924L80.5681 82.597L79.0663 80.7203L139 46H22V145H54.5379L68.0535 128.578H83.5716V141.246H97.0873L108.1 130.924H126.621Z" stroke="black" stroke-width="12" stroke-linejoin="round"/>
<path d="M36 56V135" stroke="black" stroke-width="6" stroke-linecap="round"/>
</svg>

<svg xmlns="http://www.w3.org/2000/svg" width="192" height="192" fill="none" viewBox="0 0 192 192"><path stroke="#000" stroke-linejoin="round" stroke-width="12" d="m151 60-41 23h41V60Zm9.857 85L122 101h48v44h-9.143Z"/><path stroke="#000" stroke-linejoin="round" stroke-width="12" d="M126.621 130.924 80.568 82.597l-1.502-1.877L139 46H22v99h32.538l13.516-16.422h15.518v12.668h13.515l11.013-10.322h18.521Z"/><path stroke="#000" stroke-linecap="round" stroke-width="6" d="M36 56v79"/></svg>
